public/flex-ui-assets/player/redo10.svg

<?xml version="1.0" encoding="UTF-8"?><svg version="1.1" width="24px" height="24px" viewBox="0 0 24.0 24.0" xmlns="http://www.w3.org/2000/svg" xmlns:xlink="http://www.w3.org/1999/xlink"><defs><clipPath id="i0"><path d="M1920,0 L1920,1080 L0,1080 L0,0 L1920,0 Z"></path></clipPath><clipPath id="i1"><path d="M11.2666667,0 C14.7502602,0 17.8682296,1.59791667 19.9333333,4.08958333 L19.9333333,0.866666667 L21.6666667,0.866666667 L21.6666667,7.8 L14.7333333,7.8 L14.7333333,6.06666667 L19.25625,6.06666667 C17.5601565,3.453125 14.625,1.73333333 11.2666667,1.73333333 C5.99218793,1.73333333 1.73333333,5.99218793 1.73333333,11.2666667 C1.73333333,16.5411463 5.99218793,20.8 11.2666667,20.8 C16.5411463,20.8 20.8,16.5411463 20.8,11.2666667 L22.5333333,11.2666667 C22.5333333,17.4789065 17.4789065,22.5333333 11.2666667,22.5333333 C5.05442687,22.5333333 0,17.4789065 0,11.2666667 C0,5.05442687 5.05442687,0 11.2666667,0 Z"></path></clipPath><clipPath id="i2"><path d="M6.97395833,0 C8.76653646,0 9.84817708,1.45234375 9.84817708,3.7984375 C9.84817708,6.14453125 8.77669271,7.62226562 6.97395833,7.62226562 C5.16614583,7.62226562 4.08958333,6.1546875 4.08958333,3.80351562 C4.08958333,1.4625 5.17630208,0 6.97395833,0 Z M12.9001302,1.98046875 C13.9360677,1.98046875 14.7384115,2.48828125 14.9059896,3.1078125 C14.921224,3.17382812 14.9313802,3.23476562 14.9313802,3.29570312 C14.9313802,3.55976562 14.7638021,3.74765625 14.4438802,3.74765625 C14.2610677,3.74765625 14.0782552,3.68164062 13.9614583,3.5140625 C13.7126302,3.14335937 13.4028646,2.90976562 12.8696615,2.90976562 C12.3161458,2.90976562 11.9352865,3.17890625 11.9352865,3.56484375 C11.9352865,3.8796875 12.1688802,4.09296875 12.727474,4.21992187 L13.5856771,4.4078125 C14.7231771,4.66679687 15.1751302,5.078125 15.1751302,5.87539062 C15.1751302,6.90625 14.2509115,7.58164062 12.8798177,7.58164062 C11.7423177,7.58164062 10.9450521,7.14492187 10.6860677,6.5 C10.6505208,6.40859375 10.6352865,6.32734375 10.6352865,6.25117187 C10.6352865,5.94648437 10.858724,5.75351562 11.1634115,5.75351562 C11.3716146,5.75351562 11.549349,5.85 11.711849,6.06328125 C11.996224,6.47460937 12.321224,6.65742187 12.9255208,6.65742187 C13.5145833,6.65742187 13.905599,6.40859375 13.905599,6.00234375 C13.905599,5.67734375 13.702474,5.49960937 13.1489583,5.37265625 L12.2755208,5.17460937 C11.224349,4.9359375 10.7063802,4.41796875 10.7063802,3.6359375 C10.7063802,2.63554687 11.5696615,1.98046875 12.9001302,1.98046875 Z M2.6,0.045703125 C3.06210938,0.045703125 3.34140625,0.325 3.34140625,0.776953125 L3.34140625,6.91640625 C3.34140625,7.3125 3.07734375,7.5765625 2.69648438,7.5765625 C2.315625,7.5765625 2.0515625,7.3125 2.0515625,6.91640625 L2.0515625,1.41679687 L2.02617188,1.41679687 L0.84296875,2.23945312 C0.716015625,2.33085937 0.614453125,2.36640625 0.472265625,2.36640625 C0.198046875,2.36640625 0,2.16835937 0,1.87890625 C0,1.67578125 0.08125,1.5234375 0.299609375,1.37109375 L1.79765625,0.319921875 C2.12265625,0.09140625 2.32578125,0.045703125 2.6,0.045703125 Z M6.97395833,1.07148437 C5.98880208,1.07148437 5.40989583,2.0921875 5.40989583,3.7984375 C5.40989583,5.53515625 5.97864583,6.55078125 6.97395833,6.55078125 C7.96419271,6.55078125 8.52786458,5.54023437 8.52786458,3.80351562 C8.52786458,2.08710937 7.95403646,1.07148437 6.97395833,1.07148437 Z"></path></clipPath></defs><g transform="translate(-79.0 -130.0)"><g clip-path="url(#i0)"><g transform="translate(78.0 129.0)"><g transform="translate(24.266666666666666 1.7333333333333325) scale(-1.0 1.0)"><g clip-path="url(#i1)"><polygon points="0,0 22.5333333,0 22.5333333,22.5333333 0,22.5333333 0,0" stroke="none" fill="#009E90"></polygon></g></g><g transform="translate(5.199999999999986 10.399999999999974)"><g clip-path="url(#i2)"><polygon points="0,0 15.1751302,0 15.1751302,7.62226562 0,7.62226562 0,0" stroke="none" fill="#009E90"></polygon></g></g></g></g></g></svg>

<svg width="24" height="24" viewBox="0 0 24 24" xmlns="http://www.w3.org/2000/svg">
    <defs>
        <clipPath id="a">
            <path d="M1920 0v1080H0V0h1920Z"/>
        </clipPath>
        <clipPath id="b">
            <path d="M11.267 0c3.483 0 6.601 1.598 8.666 4.09V.867h1.734V7.8h-6.934V6.067h4.523a9.489 9.489 0 0 0-7.99-4.334 9.521 9.521 0 0 0-9.533 9.534 9.521 9.521 0 0 0 9.534 9.533 9.521 9.521 0 0 0 9.533-9.533h1.733c0 6.212-5.054 11.266-11.266 11.266C5.054 22.533 0 17.48 0 11.267S5.054 0 11.267 0Z"/>
        </clipPath>
        <clipPath id="c">
            <path d="M6.974 0c1.793 0 2.874 1.452 2.874 3.798 0 2.347-1.071 3.824-2.874 3.824-1.808 0-2.884-1.467-2.884-3.818C4.09 1.463 5.176 0 6.974 0ZM12.9 1.98c1.036 0 1.838.508 2.006 1.128a.833.833 0 0 1 .025.188c0 .264-.167.452-.487.452a.567.567 0 0 1-.483-.234c-.248-.37-.558-.604-1.091-.604-.554 0-.935.269-.935.655 0 .315.234.528.792.655l.859.188c1.137.259 1.59.67 1.59 1.467 0 1.031-.925 1.707-2.296 1.707-1.138 0-1.935-.437-2.194-1.082a.68.68 0 0 1-.05-.249c0-.305.223-.497.527-.497.209 0 .386.096.549.31.284.41.61.593 1.214.593.589 0 .98-.248.98-.655 0-.325-.204-.502-.757-.63l-.873-.197c-1.052-.24-1.57-.757-1.57-1.54 0-1 .864-1.655 2.194-1.655ZM2.6.046c.462 0 .741.279.741.731v6.14c0 .396-.264.66-.645.66-.38 0-.644-.264-.644-.66v-5.5h-.026l-1.183.822a.577.577 0 0 1-.37.127C.197 2.366 0 2.168 0 1.88c0-.203.081-.356.3-.508L1.798.32c.325-.23.528-.274.802-.274ZM6.974 1.07c-.985 0-1.564 1.021-1.564 2.727 0 1.737.569 2.753 1.564 2.753.99 0 1.554-1.01 1.554-2.747 0-1.717-.574-2.733-1.554-2.733Z"/>
        </clipPath>
    </defs>
    <g clip-path="url(#a)" transform="translate(-79 -130)">
        <g clip-path="url(#b)" transform="matrix(-1 0 0 1 102.267 130.733)">
            <path fill="#009E90" d="M0 0h22.533v22.533H0V0z"/>
        </g>
        <g clip-path="url(#c)" transform="translate(83.2 139.4)">
            <path fill="#009E90" d="M0 0h15.175v7.622H0V0z"/>
        </g>
    </g>
</svg>
